resources/haticons/SVG/microsoft.svg

<!-- Generated by IcoMoon.io -->
<svg version="1.1" xmlns="http://www.w3.org/2000/svg" width="24" height="24" viewBox="0 0 24 24">
<title>microsoft</title>
<path d="M11.4 24h-11.4v-11.4h11.4v11.4zM24 24h-11.4v-11.4h11.4v11.4zM11.4 11.4h-11.4v-11.4h11.4v11.4zM24 11.4h-11.4v-11.4h11.4v11.4z"></path>
</svg>

<svg xmlns="http://www.w3.org/2000/svg" width="24" height="24"><path d="M11.4 24H0V12.6h11.4V24zM24 24H12.6V12.6H24V24zM11.4 11.4H0V0h11.4v11.4zm12.6 0H12.6V0H24v11.4z"/></svg>
